assets/icons/functional/office&editing/folders.svg

<svg width="32" height="32" viewBox="0 0 32 32" fill="none" xmlns="http://www.w3.org/2000/svg"><g id="Icon-Folders"><g clip-path="url(#clip0_12_890)"><g id="size=md (32px)"><g id="Folders"><path id="Vector" d="M25 14V25.1125C25 25.3479 24.9065 25.5736 24.7401 25.7401C24.5736 25.9065 24.3479 26 24.1125 26H5C4.73478 26 4.48043 25.8946 4.29289 25.7071C4.10536 25.5196 4 25.2652 4 25V11C4 10.7348 4.10536 10.4804 4.29289 10.2929C4.48043 10.1054 4.73478 10 5 10H10.6625C10.8787 10.0009 11.089 10.071 11.2625 10.2L14.7375 12.8C14.911 12.929 15.1213 12.9991 15.3375 13H24C24.2652 13 24.5196 13.1054 24.7071 13.2929C24.8946 13.4804 25 13.7348 25 14Z" stroke="#101828" stroke-width="2" stroke-linecap="round" stroke-linejoin="round"/><path id="Vector_2" d="M25 14V25.1125C25 25.3479 24.9065 25.5736 24.7401 25.7401C24.5736 25.9065 24.3479 26 24.1125 26H5C4.73478 26 4.48043 25.8946 4.29289 25.7071C4.10536 25.5196 4 25.2652 4 25V11C4 10.7348 4.10536 10.4804 4.29289 10.2929C4.48043 10.1054 4.73478 10 5 10H10.6625C10.8787 10.0009 11.089 10.071 11.2625 10.2L14.7375 12.8C14.911 12.929 15.1213 12.9991 15.3375 13H24C24.2652 13 24.5196 13.1054 24.7071 13.2929C24.8946 13.4804 25 13.7348 25 14Z" stroke="#101828" stroke-width="2" stroke-linecap="round" stroke-linejoin="round"/><path id="Vector_3" d="M8 10V7C8 6.73478 8.10536 6.48043 8.29289 6.29289C8.48043 6.10536 8.73478 6 9 6H14.6625C14.8787 6.00089 15.089 6.07098 15.2625 6.2L18.7375 8.8C18.911 8.92902 19.1213 8.99911 19.3375 9H28C28.2652 9 28.5196 9.10536 28.7071 9.29289C28.8946 9.48043 29 9.73478 29 10V21.1125C29 21.3479 28.9065 21.5736 28.7401 21.7401C28.5736 21.9065 28.3479 22 28.1125 22H25" stroke="#101828" stroke-width="2" stroke-linecap="round" stroke-linejoin="round"/></g></g></g></g><defs><clipPath id="clip0_12_890"><rect width="32" height="32" rx="5" fill="white"/></clipPath></defs></svg>

<svg xmlns="http://www.w3.org/2000/svg" width="32" height="32" fill="none"><g clip-path="url(#a)" stroke="#101828" stroke-linecap="round" stroke-linejoin="round" stroke-width="2"><path d="M25 14v11.113a.888.888 0 0 1-.887.887H5a1 1 0 0 1-1-1V11a1 1 0 0 1 1-1h5.662c.217 0 .427.071.6.2l3.476 2.6c.173.129.383.2.6.2H24a1 1 0 0 1 1 1Z"/><path d="M25 14v11.113a.888.888 0 0 1-.887.887H5a1 1 0 0 1-1-1V11a1 1 0 0 1 1-1h5.662c.217 0 .427.071.6.2l3.476 2.6c.173.129.383.2.6.2H24a1 1 0 0 1 1 1Z"/><path d="M8 10V7a1 1 0 0 1 1-1h5.662c.217 0 .427.071.6.2l3.476 2.6c.173.129.383.2.6.2H28a1 1 0 0 1 1 1v11.113a.888.888 0 0 1-.887.887H25"/></g><defs><clipPath id="a"><rect width="32" height="32" fill="#fff" rx="5"/></clipPath></defs></svg>
